svg/oracle.svg

<?xml version="1.0" encoding="UTF-8"?>
<svg xmlns="http://www.w3.org/2000/svg" xmlns:xlink="http://www.w3.org/1999/xlink" width="228.570999" height="32" viewBox="0 0 228.570999 32">
<path fill-rule="nonzero" fill="rgb(89.019608%, 2.352941%, 7.45098%)" fill-opacity="1" d="M 98.484375 19.261719 L 113.589844 19.261719 L 105.574219 6.46875 L 90.933594 29.742188 L 84.304688 29.742188 L 102.007812 1.867188 C 102.78125 0.789062 104.015625 0.015625 105.554688 0.015625 C 106.941406 0.015625 108.171875 0.628906 108.945312 1.714844 L 126.824219 29.609375 L 120.214844 29.609375 L 117.132812 24.371094 L 101.871094 24.371094 Z M 167.6875 24.351562 L 167.6875 0.152344 L 161.980469 0.152344 L 161.980469 26.660156 C 161.980469 27.433594 162.289062 28.046875 162.753906 28.664062 C 163.367188 29.28125 163.988281 29.589844 164.757812 29.589844 L 190.5 29.589844 L 193.890625 24.351562 Z M 74.285156 20.054688 C 79.835938 20.054688 84.148438 15.585938 84.148438 10.191406 C 84.148438 4.640625 79.679688 0.328125 74.285156 0.328125 L 49.644531 0.328125 L 49.644531 29.765625 L 55.347656 29.765625 L 55.347656 5.410156 L 73.996094 5.410156 C 76.628906 5.425781 78.757812 7.554688 78.773438 10.1875 C 78.757812 12.828125 76.617188 14.960938 73.976562 14.96875 L 58.105469 14.96875 L 74.90625 29.609375 L 83.074219 29.609375 L 71.667969 20.050781 Z M 14.640625 29.609375 C 6.46875 29.613281 0 22.984375 0 14.96875 C 0 6.796875 6.628906 0.324219 14.640625 0.324219 L 31.75 0.324219 C 39.921875 0.324219 46.390625 6.953125 46.390625 14.96875 C 46.390625 23.136719 39.765625 29.609375 31.75 29.609375 Z M 31.441406 24.371094 C 36.703125 24.339844 40.964844 20.078125 40.996094 14.8125 C 40.964844 9.550781 36.703125 5.289062 31.441406 5.257812 L 15.101562 5.257812 C 9.835938 5.289062 5.578125 9.546875 5.546875 14.8125 C 5.578125 20.078125 9.835938 24.339844 15.101562 24.371094 Z M 138.710938 29.609375 C 130.542969 29.609375 124.070312 22.984375 124.070312 14.96875 C 124.070312 6.800781 130.699219 0.328125 138.710938 0.328125 L 159.058594 0.328125 L 155.664062 5.566406 L 139.019531 5.566406 C 133.753906 5.597656 129.492188 9.859375 129.460938 15.125 C 129.492188 20.390625 133.753906 24.648438 139.019531 24.679688 L 159.363281 24.679688 L 155.96875 29.917969 L 138.707031 29.917969 Z M 207.914062 24.371094 C 203.621094 24.371094 199.902344 21.441406 198.820312 17.414062 L 223.019531 17.414062 L 226.410156 12.175781 L 198.976562 12.175781 C 200.101562 8.082031 203.824219 5.242188 208.070312 5.242188 L 224.71875 5.242188 L 228.109375 0 L 207.761719 0 C 199.59375 0 193.121094 6.628906 193.121094 14.640625 C 193.121094 22.8125 199.75 29.285156 207.761719 29.285156 L 225.179688 29.285156 L 228.570312 24.042969 L 207.917969 24.042969 Z M 207.914062 24.371094 "/>
</svg>

<svg role="img" viewBox="0 0 228.571 32" xmlns="http://www.w3.org/2000/svg"><path d="M98.484 19.262h15.106l-8.016-12.793-14.64 23.273h-6.63l17.704-27.875C102.78.79 104.016.016 105.555.016c1.386 0 2.617.613 3.39 1.699l17.88 27.894h-6.61l-3.082-5.238H101.87Zm69.204 5.09V.152h-5.708V26.66c0 .774.31 1.387.774 2.004.613.617 1.234.926 2.004.926H190.5l3.39-5.238Zm-93.403-4.297c5.55 0 9.863-4.47 9.863-9.864 0-5.55-4.468-9.863-9.863-9.863h-24.64v29.438h5.703V5.41h18.648a4.805 4.805 0 0 1 4.777 4.778 4.81 4.81 0 0 1-4.796 4.78H58.105L74.906 29.61h8.168l-11.406-9.558Zm-59.644 9.554C6.469 29.613 0 22.984 0 14.97 0 6.797 6.629.324 14.64.324h17.11c8.172 0 14.64 6.63 14.64 14.645 0 8.168-6.624 14.64-14.64 14.64Zm16.8-5.238c5.262-.031 9.524-4.293 9.555-9.558-.031-5.262-4.293-9.524-9.555-9.555h-16.34a9.61 9.61 0 0 0-9.554 9.555c.031 5.265 4.289 9.527 9.555 9.558Zm107.27 5.238c-8.168 0-14.64-6.625-14.64-14.64 0-8.168 6.628-14.64 14.64-14.64h20.348l-3.395 5.237H139.02a9.616 9.616 0 0 0-9.56 9.559c.032 5.266 4.294 9.523 9.56 9.555h20.343l-3.394 5.238h-17.262Zm69.203-5.238c-4.293 0-8.012-2.93-9.094-6.957h24.2l3.39-5.238h-27.433a9.43 9.43 0 0 1 9.093-6.934h16.649L228.109 0h-20.347c-8.168 0-14.64 6.629-14.64 14.64 0 8.172 6.628 14.645 14.64 14.645h17.418l3.39-5.242h-20.652Zm0 0" fill="rgb(89.019608%, 2.352941%, 7.450981%)"/></svg>
